lib/functional/media/pause.svg

<svg xmlns="http://www.w3.org/2000/svg" fill="none" stroke="currentColor" aria-hidden="true" viewBox="0 0 32 32"><g id="Icon-Pause"><g clip-path="url(#clip0_12_3243)"><g id="size=md (32px)"><path id="Vector" stroke-linecap="round" stroke-linejoin="round" stroke-width="2" d="M25 5H20.5C19.9477 5 19.5 5.44772 19.5 6V26C19.5 26.5523 19.9477 27 20.5 27H25C25.5523 27 26 26.5523 26 26V6C26 5.44772 25.5523 5 25 5Z"/><path id="Vector_2" stroke-linecap="round" stroke-linejoin="round" stroke-width="2" d="M11.5 5H7C6.44772 5 6 5.44772 6 6V26C6 26.5523 6.44772 27 7 27H11.5C12.0523 27 12.5 26.5523 12.5 26V6C12.5 5.44772 12.0523 5 11.5 5Z"/></g></g></g><defs><clipPath id="clip0_12_3243"><rect width="32" height="32" fill="white" rx="5"/></clipPath></defs></svg>

<svg xmlns="http://www.w3.org/2000/svg" fill="none" stroke="currentColor" aria-hidden="true" viewBox="0 0 32 32"><g stroke="#101828" stroke-linecap="round" stroke-linejoin="round" stroke-width="2" clip-path="url(#a)"><path d="M25 5h-4.5a1 1 0 0 0-1 1v20a1 1 0 0 0 1 1H25a1 1 0 0 0 1-1V6a1 1 0 0 0-1-1ZM11.5 5H7a1 1 0 0 0-1 1v20a1 1 0 0 0 1 1h4.5a1 1 0 0 0 1-1V6a1 1 0 0 0-1-1Z"/></g><defs><clipPath id="a"><rect width="32" height="32" fill="#fff" rx="5"/></clipPath></defs></svg>
